X: 83
T:Miss Grant's Jig --  Tombreackachy
B:William Marshall's Scottish Airs, Melodies, Strathspeys, Reels &c (1822)
C:William Marshall
L:1/8
M:6/8
O:Scotland
R:Jig
Z:Clark Bernst + Richard Robinson
%%Page:4 - 3
F:http://richardrobinson.tunebook.org.uk/tune/3926
%%TBL:{"version":1,"type":"tune","id":"3926"}
K:Bb
%%staves { 1 2 }
V:1
d | \
B,2B ~B2F | BdB"_or" {G}[BF][EF]D | B,2B ~B2F | Gcc ~c2d | \
B,2B ~B2F | BdB BFD | EGE DFD | Ccc ~c2 :|
d/e/ | \
fdB ~BdB | FBB ~B2 d/e/ | fdB ~BdB | Gcc ~c2 d | \
fdB ~BAc | !trill!BAG FED | EFG FED | Ccc ~c2 d/e/ |
fdB ~BdB | FBB ~B2 d/e/ | fdB ~BdB | Gcc ~c2 d | \
fga bag | fed cBA | BAG FED | Ccc ~c2 |]
V:2 middle=d clef=bass
z |\
B3 B3 | B3 B3 | B3 B3 | c3 c3 |B3 B3 | B3 B3 | e3 d3 c3 c2 :| \
z | \
[Bb]3 [Bb]3 | [Bb]3 [Bb]3 | [Bb]3 [Bb]3 | [cc']3 [cc']3 | b3 f3 | g2e d2B | e3 d3 | c3 c3 |
[Bb]3 [Bb]3 | [Bb]3 [Bb]3 | [Bb]3 [Bb]3 | [cc']3 [cc']3 | B3 e3 d3 f3 | g2e d2B | c3 c2 |]

